X:3
T:Charley Over the Water
S:American Veteran Fifer, #3
C:To Jno. R. Weathers Washington D.C., Co. F 144th Ind. Val. Inf.
M:6/8
L:1/8
Q:1/8=300
K:G 
%%MIDI program 72
%%MIDI transpose 8
%%MIDI ratio 3 1
G | GBd dBd | ege dBG | GBd dBd | efg a2G |
GBd dBd | ege dBd | gbg afd | e2f g2 :|
|: g | gbg afd | ege dBG | gbg afd | efg a3 |
gbg afd | ege dBG | GBd dBd | egf g2 :|


